X:3
T:Alston Fiddle, The
M:4/4
L:1/8
C:Taz Tarry
S:Copyright B.Tarry, November 1988
R:Reel
Q:1/4=160
K:D
|:D2|E2BA FAFA|defe cAFD|E2BA FAGA|Adef gecA|
E2 BA FAGA|BAGA BAcA|Adef gecB|A2d2d2:|
|:e2|f2af gecA|DFAd efge|f2 af gfed|cAceg2f2|
f2af gecA|DFAd efge|fdge fdec|dBAF D2:|

